actions/24/depth16to8.svg

<?xml version="1.0" encoding="UTF-8" standalone="no"?>
<svg
   width="24"
   height="24"
   version="1.1"
   id="svg7"
   sodipodi:docname="depth16to8.svg"
   inkscape:version="1.1.2 (0a00cf5339, 2022-02-04)"
   xmlns:inkscape="http://www.inkscape.org/namespaces/inkscape"
   xmlns:sodipodi="http://sodipodi.sourceforge.net/DTD/sodipodi-0.dtd"
   xmlns="http://www.w3.org/2000/svg"
   xmlns:svg="http://www.w3.org/2000/svg">
  <sodipodi:namedview
     id="namedview9"
     pagecolor="#191919"
     bordercolor="#666666"
     borderopacity="1.0"
     inkscape:pageshadow="2"
     inkscape:pageopacity="0"
     inkscape:pagecheckerboard="0"
     showgrid="false"
     inkscape:zoom="113.66667"
     inkscape:cx="14.234604"
     inkscape:cy="9.1759531"
     inkscape:window-width="1837"
     inkscape:window-height="967"
     inkscape:window-x="0"
     inkscape:window-y="29"
     inkscape:window-maximized="1"
     inkscape:current-layer="svg7" />
  <defs
     id="defs3">
    <style
       id="current-color-scheme"
       type="text/css">
   .ColorScheme-Text { color:#eeeeec; } .ColorScheme-Highlight { color:#367bf0; } .ColorScheme-NeutralText { color:#ffcc44; } .ColorScheme-PositiveText { color:#3db47e; } .ColorScheme-NegativeText { color:#dd4747; }
  </style>
  </defs>
  <path
     style="fill:currentColor"
     class="ColorScheme-Text"
     transform="translate(1,1)"
     d="m 4,12 v 1 4 H 5 V 13 H 6.5938499 9 v -1 z m 1,0 c 0,3 3.5,6 7,6 V 17 C 10.00521,17 7.3737494,15.08999 6.3916609,13.302006 6.3438496,13.214961 6.6782288,12.952253 6.6384994,12.866021 6.4715455,12.503649 6,12.326477 6,12 Z M 19,10 V 9 5 H 18 V 9 L 16.738,8.5777674 16.456386,9 H 14 v 1 z m -1,0 C 18,7 14.5,4 11,4 v 1 c 2.009647,0 4.665484,1.9385676 5.630007,3.7379229 C 16.86535,9.1769644 17,9.6077179 17,10 Z M 8,4 C 6,4 6,6 6,6 V 9 H 7 V 6 C 7,6 7,5 8,5 9,5 9,6 9,6 h 1 C 10,6 10,4 8,4 Z M 8,7 C 6.8954305,7 6,7.8954305 6,9 c 0,1.104569 0.8954305,2 2,2 1.1045695,0 2,-0.895431 2,-2 C 10,7.8954305 9.1045695,7 8,7 Z M 8,8 C 8.5522847,8 9,8.4477153 9,9 9,9.5522847 8.5522847,10 8,10 7.4477153,10 7,9.5522847 7,9 7,8.4477153 7.4477153,8 8,8 Z M 3,4 v 1 h 1 v 6 H 5 V 4 Z m 14,10 c -1.104569,0 -2,0.895431 -2,2 0,1.104569 0.895431,2 2,2 1.104569,0 2,-0.895431 2,-2 0,-1.104569 -0.895431,-2 -2,-2 z m 0,1 c 0.552285,0 1,0.447715 1,1 0,0.552285 -0.447715,1 -1,1 -0.552285,0 -1,-0.447715 -1,-1 0,-0.552285 0.447715,-1 1,-1 z m 0,-4 c -1.104569,0 -2,0.895431 -2,2 0,1.104569 0.895431,2 2,2 1.104569,0 2,-0.895431 2,-2 0,-1.104569 -0.895431,-2 -2,-2 z m 0,1 c 0.552285,0 1,0.447715 1,1 0,0.552285 -0.447715,1 -1,1 -0.552285,0 -1,-0.447715 -1,-1 0,-0.552285 0.447715,-1 1,-1 z"
     id="path5"
     sodipodi:nodetypes="ccccccccccccsscccccccccccccccsccsccccsccssssssssssscccccccssssssssssssssssssss" />
</svg>

<svg xmlns="http://www.w3.org/2000/svg" width="24" height="24">
 <defs>
  <style id="current-color-scheme" type="text/css">
   .ColorScheme-Text { color:#eeeeec; } .ColorScheme-Highlight { color:#367bf0; } .ColorScheme-NeutralText { color:#ffcc44; } .ColorScheme-PositiveText { color:#3db47e; } .ColorScheme-NegativeText { color:#dd4747; }
  </style>
 </defs>
 <path style="fill:currentColor" class="ColorScheme-Text" transform="translate(1,1)" d="M 4,12 V 13 17 H 5 V 13 H 9 V 12 Z M 5,12 C 5,15 8.5,18 12,18 V 17 C 9.5,17 6,14 6,12 Z M 19,10 V 9 5 H 18 V 9 H 14 V 10 Z M 18,10 C 18,7 14.5,4 11,4 V 5 C 13.5,5 17,8 17,10 Z M 8,4 C 6,4 6,6 6,6 V 9 H 7 V 6 C 7,6 7,5 8,5 9,5 9,6 9,6 H 10 C 10,6 10,4 8,4 Z M 8,7 A 2,2 0 0 0 6,9 2,2 0 0 0 8,11 2,2 0 0 0 10,9 2,2 0 0 0 8,7 Z M 8,8 A 1,1 0 0 1 9,9 1,1 0 0 1 8,10 1,1 0 0 1 7,9 1,1 0 0 1 8,8 Z M 3,4 V 5 H 4 V 11 H 5 V 4 Z M 17,14 A 2,2 0 0 0 15,16 2,2 0 0 0 17,18 2,2 0 0 0 19,16 2,2 0 0 0 17,14 Z M 17,15 A 1,1 0 0 1 18,16 1,1 0 0 1 17,17 1,1 0 0 1 16,16 1,1 0 0 1 17,15 Z M 17,11 A 2,2 0 0 0 15,13 2,2 0 0 0 17,15 2,2 0 0 0 19,13 2,2 0 0 0 17,11 Z M 17,12 A 1,1 0 0 1 18,13 1,1 0 0 1 17,14 1,1 0 0 1 16,13 1,1 0 0 1 17,12 Z"/>
</svg>
